app/images/dist/customer-support.svg

<svg width="24" height="24" viewBox="0 0 24 24" fill="none" xmlns="http://www.w3.org/2000/svg">
<path fill-rule="evenodd" clip-rule="evenodd" d="M6.00013 8.95997L6.24612 11.9118L6.98855 19.8311L7.09141 20.2425C7.2027 20.6877 7.60268 21 8.06155 21H11C11.5523 21 12 21.4477 12 22C12 22.5523 11.5523 23 11 23H8.06155C6.68495 23 5.485 22.0631 5.15113 20.7276L5.14141 20.6887L1.55279 18.8944C1.214 18.725 1 18.3788 1 18V13C1 12.561 1.28632 12.1733 1.70591 12.0442L4.18661 11.2809L4.00345 9.08305C4.00115 9.05542 4 9.02772 4 9C4 4.58172 7.58172 1 12 1C16.4183 1 20 4.58172 20 9C20 9.02772 19.9988 9.05542 19.9965 9.08305L19.8134 11.2809L22.2941 12.0442C22.7137 12.1733 23 12.561 23 13V18C23 18.3788 22.786 18.725 22.4472 18.8944L18.4472 20.8944C18.1223 21.0569 17.7348 21.0304 17.4351 20.8252C17.1354 20.62 16.9705 20.2683 17.0044 19.9067L17.7539 11.9118L17.9999 8.95997C17.9783 5.66469 15.3004 3 12 3C8.69964 3 6.02166 5.66469 6.00013 8.95997ZM19.6309 13.3173L19.1638 18.3001L21 17.382V13.7386L19.6309 13.3173ZM4.36911 13.3173L3 13.7386V17.382L4.83625 18.3001L4.36911 13.3173Z" fill="black"/>
</svg>

<svg width="24" height="24" fill="none" xmlns="http://www.w3.org/2000/svg"><path fill-rule="evenodd" clip-rule="evenodd" d="m6 8.96.246 2.952.743 7.92.102.41a1 1 0 0 0 .97.758H11a1 1 0 1 1 0 2H8.062a3 3 0 0 1-2.91-2.272l-.01-.04-3.59-1.794A1 1 0 0 1 1 18v-5a1 1 0 0 1 .706-.956l2.48-.763-.183-2.198A1.001 1.001 0 0 1 4 9a8 8 0 1 1 16 0c0 .028-.001.055-.003.083l-.184 2.198 2.481.763A1 1 0 0 1 23 13v5a1 1 0 0 1-.553.894l-4 2a1 1 0 0 1-1.443-.987l.75-7.995L18 8.96a6 6 0 0 0-12 0Zm13.63 4.357-.466 4.983L21 17.382v-3.643l-1.37-.422Zm-15.26 0L3 13.74v3.643l1.836.918-.467-4.983Z" fill="#000"/></svg>
